X:1
T:Alankaar 2 — Doubles (Consecutive)
C:Exercise
M:none
L:1/4
Q:1/4=90
K:C
% Each group: two consecutive scale degrees, group start steps up by one.
CD | DE | EF | FG | GA | AB | Bc |
cB | BA | AG | GF | FE | ED | DC |
